actions/22/document-edit-decrypt-verify.svg

<svg xmlns="http://www.w3.org/2000/svg" viewBox="0 0 22 22">
  <defs id="defs3051">
    <style type="text/css" id="current-color-scheme">
      .ColorScheme-Text {
        color:#808080;
      }
      </style>
  </defs>
 <path 
    style="fill:currentColor;fill-opacity:1;stroke:none" 
	d="m4 2.998047v.001953 2h2v-2h2v2h2v-2h2v2h2v-2h2v2h2v-2-.001953h-1-12-1m2 3.00195v2h2v-2h-2m4 0v2h2v-2h-2m4 0v2h2v-2h-2m-10 3v2 8h1 7v-1h-7v-7h1v-2h-2m4 0v2h2v-2h-2m5 2c-1.662003 0-3 1.338-3 3 0 1.662 1.337997 3 3 3 .649392 0 1.246354-.208586 1.736328-.556641l2.556641 2.556641.707031-.707031-2.556641-2.556641c.348055-.489974.556641-1.086937.556641-1.736328 0-1.662-1.337997-3-3-3m0 1c1.108003 0 2 .892 2 2 0 1.108-.891997 2-2 2-1.108003 0-2-.892-2-2 0-1.108.891997-2 2-2" 
    class="ColorScheme-Text"
    />
</svg>

<svg xmlns="http://www.w3.org/2000/svg" version="1.1" viewBox="0 0 22 22">
 <defs>
  <style id="current-color-scheme" type="text/css">
   .ColorScheme-Text { color:#808080; }
  </style>
 </defs>
 <path class="ColorScheme-Text" d="M 4,2.998 V 3 5 H 6 V 3 H 8 V 5 H 10 V 3 H 12 V 5 H 14 V 3 H 16 V 5 H 18 V 3 2.998 H 17 5 4 M 6,6 V 8 H 8 V 6 H 6 M 10,6 V 8 H 12 V 6 H 10 M 14,6 V 8 H 16 V 6 H 14 M 4,9 V 11 19 H 5 12 V 18 H 5 V 11 H 6 V 9 H 4 M 8,9 V 11 H 10 V 9 H 8 M 13,11 C 11.338,11 10,12.338 10,14 10,15.662 11.338,17 13,17 13.649,17 14.246,16.791 14.736,16.443 L 17.293,19 18,18.293 15.443,15.736 C 15.791,15.246 16,14.649 16,14 16,12.338 14.662,11 13,11 M 13,12 C 14.108,12 15,12.892 15,14 15,15.108 14.108,16 13,16 11.892,16 11,15.108 11,14 11,12.892 11.892,12 13,12" style="color:#808080;fill:currentColor"/>
</svg>
